X: 3147
Q: "Strathspey."
M: C
L: 1/16
K: Am
[|\
vA4 (Bd3) ue4 (dB3) | (B2A2) AAA2 (BA3) (Ac3) |\
(Bd3) d3B c2B2A2G2 | E4 (G3A) G2E2D2E2 |\
e3^fg3f ed3 cB3 | AAA2 (e3d) (cA3) A2 |]\
g3ab3a bag^f ge3 | d3ed3c BG3 G3B |\
bg3 ae3 ge3 dA3 | Aa3 e3d cA3 A4 |]


